X:1
T: Molly Brallaghan
C:
R:Reel
Q: 232
K:G
M:4/4
L:1/8
|:B|c2 dc B2 cB|AG AB AG EF|GA GE DE GB|AG AB AG EG|
c2 dc B2 cB|AG AB AG EF|GA GE DE GB|AG AB G3:|
|:D|GA Bc d2 ef|gf ge dB GB|c2 dc B2 cB|AG GE GA Bd|
gf ge dB GB|AG AB AG EF|GA GE DE GB|AG AB G3:|
